X:7643
T:Tout le long de bois - Tour
O:england
C:Y. Dour 3
M:4/4
L:1/8
K:C
E2ABc2AB|cc BA G4|E2AB cAAB|c2B2A4:|\
|:c2ABc2AB|ccdcB4|ccAB cAAB|c2B2A4:|


